X:1
T:Hetch Hetchy, HM
T:Hetch Hetchy, HM
T:William T. Rogers, 1871
T:Public Domain Courtesy of the Cyber Hymnal™
C:William T. Rogers, 1871
Z:Public Domain
Z:Courtesy of the Cyber Hymnal™
%%score ( 1 2 ) 3
L:1/8
Q:1/4=112
M:4/4
K:F
V:1 treble 
V:2 treble 
V:3 bass 
V:1
 F2 | [FA]3 [DG] [CF]2 [CE]2 | [CF]4 z2 [FA]2 | [Ec]3 [GB] [FA]2 [EG]2 | [FA]4 z2 [FA]2 | %5
 [EG]3 [FA] [GB]2 [EG]2 | ([FA]3 [GB] [Ac]2) [FA]2 | [Bd]3 [Ac] [GB]2 [FA]2 | [EG]4 z2 [Ec]2 | %9
 [Fc]3 [Fd] [Fc]2 [FA]2 | [EG]2 F2 [FB]3 [Fd] | [Fc]3 [FA] [EG]3 [GB] | [FA]2 [EG]2 F2 |] %13
V:2
 F2 | x8 | x8 | x8 | x8 | x8 | x8 | x8 | x8 | x8 | x2 F2 x4 | x8 | x4 F2 |] %13
V:3
 [F,A,]2 | [F,C]3 [B,,B,] [C,A,]2 [C,G,]2 | [F,A,]4 z2 [D,F,]2 | [C,G,]3 [C,C] [C,C]2 [C,C]2 | %4
 [F,A,]4 z2 [F,C]2 | [C,C]3 [C,C] [C,C]2 [C,C]2 | [F,C]6 [F,C]2 | [F,B,]3 [F,C] [E,C]2 [F,C]2 | %8
 [C,C]4 z2 [C,G,]2 | [F,A,]3 [F,B,] [F,A,]2 [F,C]2 | [C,C]2 [D,A,]2 [B,,D]3 [B,,B,] | %11
 [C,A,]3 [C,C] [C,C]3 [C,C] | [C,C]2 [C,B,]2 [F,,F,A,]2 |] %13

